src/assets/outline/VideoRemove.svg

<svg width="24" height="24" viewBox="0 0 24 24"  xmlns="http://www.w3.org/2000/svg">
<path d="M15 22.75H9C3.57 22.75 1.25 20.43 1.25 15V9C1.25 3.57 3.57 1.25 9 1.25H15C20.43 1.25 22.75 3.57 22.75 9V15C22.75 15.25 22.75 15.5 22.73 15.74C22.7 16.06 22.48 16.32 22.17 16.4C21.86 16.48 21.54 16.36 21.36 16.09C21.35 16.08 21.29 16.01 21.28 15.99C20.59 15.2 19.58 14.75 18.51 14.75C17.49 14.75 16.53 15.15 15.82 15.88C15.14 16.58 14.76 17.51 14.76 18.5C14.76 19.17 14.95 19.84 15.3 20.43C15.49 20.75 15.73 21.03 16 21.27L16.12 21.38C16.35 21.57 16.46 21.9 16.37 22.19C16.28 22.48 16.04 22.7 15.74 22.73C15.51 22.75 15.25 22.75 15 22.75ZM9 2.75C4.39 2.75 2.75 4.39 2.75 9V15C2.75 19.61 4.39 21.25 9 21.25H14.03C14.02 21.24 14.01 21.22 14 21.21C13.5 20.38 13.24 19.45 13.24 18.5C13.24 17.12 13.77 15.82 14.72 14.84C15.7 13.83 17.08 13.25 18.49 13.25C19.48 13.25 20.43 13.52 21.24 14.03V9C21.24 4.39 19.6 2.75 14.99 2.75H9Z" />
<path d="M21.48 7.85986H2.52002C2.11002 7.85986 1.77002 7.51986 1.77002 7.10986C1.77002 6.69986 2.11002 6.35986 2.52002 6.35986H21.48C21.89 6.35986 22.23 6.69986 22.23 7.10986C22.23 7.51986 21.9 7.85986 21.48 7.85986Z" />
<path d="M8.52002 7.71985C8.11002 7.71985 7.77002 7.37985 7.77002 6.96985V2.10986C7.77002 1.69986 8.11002 1.35986 8.52002 1.35986C8.93002 1.35986 9.27002 1.69986 9.27002 2.10986V6.96985C9.27002 7.37985 8.93002 7.71985 8.52002 7.71985Z" />
<path d="M15.48 7.2699C15.07 7.2699 14.73 6.9299 14.73 6.5199V2.10986C14.73 1.69986 15.07 1.35986 15.48 1.35986C15.89 1.35986 16.23 1.69986 16.23 2.10986V6.5199C16.23 6.9399 15.9 7.2699 15.48 7.2699Z" />
<path d="M18.4998 23.75C17.3198 23.75 16.1698 23.35 15.2698 22.61C15.2398 22.59 15.2098 22.57 15.1898 22.55C15.0998 22.47 15.0398 22.43 14.9898 22.37C14.6398 22.07 14.2998 21.67 14.0198 21.21C13.5198 20.38 13.2598 19.45 13.2598 18.5C13.2598 17.12 13.7898 15.82 14.7398 14.84C15.7198 13.83 17.0998 13.25 18.5098 13.25C20.0198 13.25 21.4398 13.89 22.4198 15.01C22.4698 15.05 22.5498 15.15 22.6198 15.25C23.3398 16.12 23.7698 17.29 23.7698 18.5C23.7698 18.94 23.7198 19.35 23.6198 19.74C23.4998 20.24 23.2998 20.73 23.0198 21.2C22.0498 22.78 20.3298 23.75 18.4998 23.75ZM16.0898 21.35C16.1098 21.37 16.1398 21.38 16.1598 21.4C16.8198 21.95 17.6198 22.24 18.4998 22.24C19.8098 22.24 21.0298 21.54 21.7098 20.42C21.9098 20.09 22.0498 19.73 22.1398 19.36C22.2098 19.08 22.2498 18.8 22.2498 18.49C22.2498 17.63 21.9498 16.8 21.3998 16.14C21.3898 16.13 21.2798 16 21.2698 15.98C20.5798 15.19 19.5698 14.74 18.4998 14.74C17.4798 14.74 16.5198 15.14 15.8098 15.87C15.1298 16.57 14.7498 17.5 14.7498 18.49C14.7498 19.16 14.9398 19.83 15.2898 20.42C15.4798 20.74 15.7198 21.02 15.9898 21.26L16.0898 21.35Z" />
<path d="M19.6998 20.43C19.5098 20.43 19.3198 20.36 19.1698 20.21L16.7898 17.83C16.4998 17.54 16.4998 17.06 16.7898 16.77C17.0798 16.48 17.5598 16.48 17.8498 16.77L20.2298 19.15C20.5198 19.44 20.5198 19.92 20.2298 20.21C20.0898 20.35 19.8898 20.43 19.6998 20.43Z" />
<path d="M17.3002 20.45C17.1102 20.45 16.9202 20.38 16.7702 20.23C16.4802 19.94 16.4802 19.46 16.7702 19.17L19.1502 16.79C19.4402 16.5 19.9202 16.5 20.2102 16.79C20.5002 17.08 20.5002 17.56 20.2102 17.85L17.8302 20.23C17.6802 20.38 17.4902 20.45 17.3002 20.45Z" />
</svg>

<?xml version="1.0" encoding="UTF-8"?>
<svg width="24" height="24" viewBox="0 0 24 24" xmlns="http://www.w3.org/2000/svg">
 <path d="m15 22.75h-6c-5.43 0-7.75-2.32-7.75-7.75v-6c0-5.43 2.32-7.75 7.75-7.75h6c5.43 0 7.75 2.32 7.75 7.75v6c0 0.25 0 0.5-0.02 0.74-0.03 0.32-0.25 0.58-0.56 0.66s-0.63-0.04-0.81-0.31c-0.01-0.01-0.07-0.08-0.08-0.1-0.69-0.79-1.7-1.24-2.77-1.24-1.02 0-1.98 0.4-2.69 1.13-0.68 0.7-1.06 1.63-1.06 2.62 0 0.67 0.19 1.34 0.54 1.93 0.19 0.32 0.43 0.6 0.7 0.84l0.12 0.11c0.23 0.19 0.34 0.52 0.25 0.81s-0.33 0.51-0.63 0.54c-0.23 0.02-0.49 0.02-0.74 0.02zm-6-20c-4.61 0-6.25 1.64-6.25 6.25v6c0 4.61 1.64 6.25 6.25 6.25h5.03c-0.01-0.01-0.02-0.03-0.03-0.04-0.5-0.83-0.76-1.76-0.76-2.71 0-1.38 0.53-2.68 1.48-3.66 0.98-1.01 2.36-1.59 3.77-1.59 0.99 0 1.94 0.27 2.75 0.78v-5.03c0-4.61-1.64-6.25-6.25-6.25h-5.99z"/>
 <path d="m21.48 7.8599h-18.96c-0.41 0-0.75-0.34-0.75-0.75s0.34-0.75 0.75-0.75h18.96c0.41 0 0.75 0.34 0.75 0.75s-0.33 0.75-0.75 0.75z"/>
 <path d="m8.52 7.7198c-0.41 0-0.75-0.34-0.75-0.75v-4.86c0-0.41 0.34-0.75 0.75-0.75s0.75 0.34 0.75 0.75v4.86c0 0.41-0.34 0.75-0.75 0.75z"/>
 <path d="m15.48 7.2699c-0.41 0-0.75-0.34-0.75-0.75v-4.41c0-0.41 0.34-0.75 0.75-0.75s0.75 0.34 0.75 0.75v4.41c0 0.42-0.33 0.75-0.75 0.75z"/>
 <path d="m18.5 23.75c-1.18 0-2.33-0.4-3.23-1.14-0.03-0.02-0.06-0.04-0.08-0.06-0.09-0.08-0.15-0.12-0.2-0.18-0.35-0.3-0.69-0.7-0.97-1.16-0.5-0.83-0.76-1.76-0.76-2.71 0-1.38 0.53-2.68 1.48-3.66 0.98-1.01 2.36-1.59 3.77-1.59 1.51 0 2.93 0.64 3.91 1.76 0.05 0.04 0.13 0.14 0.2 0.24 0.72 0.87 1.15 2.04 1.15 3.25 0 0.44-0.05 0.85-0.15 1.24-0.12 0.5-0.32 0.99-0.6 1.46-0.97 1.58-2.69 2.55-4.52 2.55zm-2.41-2.4c0.02 0.02 0.05 0.03 0.07 0.05 0.66 0.55 1.46 0.84 2.34 0.84 1.31 0 2.53-0.7 3.21-1.82 0.2-0.33 0.34-0.69 0.43-1.06 0.07-0.28 0.11-0.56 0.11-0.87 0-0.86-0.3-1.69-0.85-2.35-0.01-0.01-0.12-0.14-0.13-0.16-0.69-0.79-1.7-1.24-2.77-1.24-1.02 0-1.98 0.4-2.69 1.13-0.68 0.7-1.06 1.63-1.06 2.62 0 0.67 0.19 1.34 0.54 1.93 0.19 0.32 0.43 0.6 0.7 0.84l0.1 0.09z"/>
 <path d="m19.7 20.43c-0.19 0-0.38-0.07-0.53-0.22l-2.38-2.38c-0.29-0.29-0.29-0.77 0-1.06s0.77-0.29 1.06 0l2.38 2.38c0.29 0.29 0.29 0.77 0 1.06-0.14 0.14-0.34 0.22-0.53 0.22z"/>
 <path d="m17.3 20.45c-0.19 0-0.38-0.07-0.53-0.22-0.29-0.29-0.29-0.77 0-1.06l2.38-2.38c0.29-0.29 0.77-0.29 1.06 0s0.29 0.77 0 1.06l-2.38 2.38c-0.15 0.15-0.34 0.22-0.53 0.22z"/>
</svg>
